build/images/content/marketing/img_3.svg

<svg width="120" height="120" viewBox="0 0 120 120" fill="none" xmlns="http://www.w3.org/2000/svg">
<path d="M71.25 63.75H72.2719C72.7669 62.595 73.125 61.875 73.125 61.875H83.5462C85.1606 61.875 86.5931 62.9081 87.1031 64.44L88.125 67.5H89.115C91.6744 67.5 93.75 69.5756 93.75 72.135C93.75 73.89 92.7581 75.495 91.1869 76.2806L90 76.875L93.75 84.375V86.4713L96.9113 84.8925C103.058 81.8175 106.875 75.6394 106.875 68.7675V64.9012C106.875 54.9619 98.7881 46.875 88.8488 46.875C85.5825 46.875 82.3762 47.7638 79.575 49.4438L77.25 50.8388C75.4388 51.9244 73.365 52.5 71.25 52.5C68.1487 52.5 65.625 55.0238 65.625 58.125C65.625 61.2263 68.1487 63.75 71.25 63.75Z" fill="#00BBD3"/>
<path d="M37.5 43.125H30C21.1481 43.125 11.25 50.2275 11.25 59.7337C11.25 62.1112 11.6569 64.4494 12.4575 66.6844L12.9019 67.9275H13.3369C13.98 65.5275 16.1475 63.75 18.75 63.75H20.625C20.625 63.75 28.125 61.875 33.75 56.25C39.375 61.875 46.875 63.75 46.875 63.75H48.75C51.3525 63.75 53.52 65.5275 54.1631 67.9275H54.5981L55.0425 66.6844C55.8431 64.4494 56.25 62.1112 56.25 59.7337C56.25 50.2275 46.3519 43.125 37.5 43.125Z" fill="#00BBD3"/>
<path d="M20.625 18.75H54.375V26.25H20.625V18.75Z" fill="#00BBD3"/>
<path d="M107.156 90.3336L95.625 88.4118V83.9305L92.5069 77.6924C94.4419 76.5168 95.625 74.4318 95.625 72.1349C95.625 68.668 92.9006 65.8255 89.4806 65.6361L88.8844 63.8455C88.1156 61.5449 85.9725 59.9999 83.5481 59.9999H71.9662L71.4487 61.0368C71.2875 61.3593 67.5 69.0018 67.5 74.9999V76.1586L71.25 78.0336V79.4661C71.25 82.0518 72.6881 84.3768 75 85.5336C75.9375 86.0024 76.9875 86.2499 78.0338 86.2499H80.625V88.4118L69.0938 90.3318C65.9194 90.8605 63.18 92.4843 61.2319 94.7811C59.595 93.3243 57.6037 92.2818 55.4512 91.7849L41.25 88.5074V86.0943C44.6775 84.1049 47.2406 80.8011 48.2569 76.873H48.75C52.8862 76.873 56.25 73.5093 56.25 69.373C56.25 65.2368 52.8862 61.873 48.75 61.873H47.1281C45.9788 61.5468 39.7725 59.6193 35.0756 54.9224L33.75 53.5986L32.4244 54.9243C27.7275 59.6211 21.5212 61.5486 20.3719 61.8749H18.75C14.6137 61.8749 11.25 65.2386 11.25 69.3749C11.25 73.5111 14.6137 76.8749 18.75 76.8749H19.2431C20.2594 80.803 22.8225 84.1049 26.25 86.0961V88.5093L12.0487 91.7868C6.05813 93.1668 1.875 98.4261 1.875 104.574V118.125H58.125H61.9575H118.125V103.281C118.125 96.8361 113.513 91.393 107.156 90.3336ZM94.5656 92.038L95.34 92.1674L94.2412 100.963L90.6019 97.3255L94.5656 92.038ZM78.0338 82.4999C77.565 82.4999 77.0963 82.3893 76.6763 82.1793C75.6431 81.6636 75 80.623 75 79.4661V75.7161L71.3025 73.8674C71.6306 70.123 73.4381 65.7168 74.3175 63.7499H83.5462C84.3544 63.7499 85.0706 64.2636 85.3238 65.0324L86.7731 69.3749H89.115C90.6375 69.3749 91.875 70.6124 91.875 72.1349C91.875 73.1886 91.29 74.1336 90.3506 74.6043L87.4837 76.0349L91.875 84.8174V89.3755L88.125 94.3743L84.375 89.3755V86.2499H88.125V82.4999H78.0338ZM81.6844 92.038L85.6481 97.3255L82.0088 100.963L80.91 92.1674L81.6844 92.038ZM41.8387 92.4936L40.0969 101.197L36.225 97.3255L40.1419 92.1036L41.8387 92.4936ZM52.5 69.3749C52.5 71.443 50.8181 73.1249 48.75 73.1249L48.7481 65.6249H48.75C50.8181 65.6249 52.5 67.3068 52.5 69.3749ZM15 69.3749C15 67.3068 16.6819 65.6249 18.75 65.6249V73.1249C16.6819 73.1249 15 71.443 15 69.3749ZM22.5 73.1249V65.143C24.8156 64.3705 29.5519 62.4768 33.75 58.813C37.9481 62.4768 42.6844 64.3705 45 65.143V73.1249C45 79.3293 39.9544 84.3749 33.75 84.3749C27.5456 84.3749 22.5 79.3293 22.5 73.1249ZM33.75 88.1249C35.0475 88.1249 36.2981 87.943 37.5 87.6318V89.3774L33.75 94.3761L30 89.3774V87.6318C31.2019 87.943 32.4525 88.1249 33.75 88.1249ZM27.3581 92.1018L31.275 97.3236L27.4031 101.196L25.6612 92.4918L27.3581 92.1018ZM54.375 114.375V103.125H50.625V114.375H16.875V103.125H13.125V114.375H5.625V104.574C5.625 100.181 8.61375 96.4255 12.8906 95.4393L22.005 93.3355L25.0987 108.802L33.75 100.151L42.4012 108.802L45.495 93.3355L54.6075 95.4393C56.3663 95.8461 57.9544 96.7818 59.205 98.0699C58.515 99.673 58.125 101.434 58.125 103.281V114.375H54.375ZM114.375 114.375H106.875V103.125H103.125V114.375H73.125V103.125H69.375V114.375H61.9575H61.875V103.281C61.875 98.6793 65.1694 94.7886 69.7088 94.0311L77.2088 92.7824L79.2412 109.037L88.125 100.151L97.0088 109.037L99.0412 92.7824L106.541 94.0311C111.081 94.7886 114.375 98.6793 114.375 103.281V114.375Z" fill="#043A52"/>
<path d="M78.75 71.25C79.7855 71.25 80.625 70.4105 80.625 69.375C80.625 68.3395 79.7855 67.5 78.75 67.5C77.7145 67.5 76.875 68.3395 76.875 69.375C76.875 70.4105 77.7145 71.25 78.75 71.25Z" fill="#043A52"/>
<path d="M41.25 73.125H37.5C37.5 75.1931 35.8181 76.875 33.75 76.875C31.6819 76.875 30 75.1931 30 73.125H26.25C26.25 77.2613 29.6137 80.625 33.75 80.625C37.8863 80.625 41.25 77.2613 41.25 73.125Z" fill="#043A52"/>
<path d="M39.375 69.375C40.4105 69.375 41.25 68.5355 41.25 67.5C41.25 66.4645 40.4105 65.625 39.375 65.625C38.3395 65.625 37.5 66.4645 37.5 67.5C37.5 68.5355 38.3395 69.375 39.375 69.375Z" fill="#043A52"/>
<path d="M28.125 69.375C29.1605 69.375 30 68.5355 30 67.5C30 66.4645 29.1605 65.625 28.125 65.625C27.0895 65.625 26.25 66.4645 26.25 67.5C26.25 68.5355 27.0895 69.375 28.125 69.375Z" fill="#043A52"/>
<path d="M86.25 106.875H90V110.625H86.25V106.875Z" fill="#043A52"/>
<path d="M99.375 13.125H103.125V16.875H99.375V13.125Z" fill="#043A52"/>
<path d="M84.375 13.125H88.125V16.875H84.375V13.125Z" fill="#043A52"/>
<path d="M91.875 13.125H95.625V16.875H91.875V13.125Z" fill="#043A52"/>
<path d="M106.875 13.125H110.625V16.875H106.875V13.125Z" fill="#043A52"/>
<path d="M112.5 1.875H82.5C79.3987 1.875 76.875 4.39875 76.875 7.5V22.5C76.875 25.6012 79.3987 28.125 82.5 28.125H84.375V34.9463C84.375 37.3875 86.3625 39.375 88.8037 39.375C90.1219 39.375 91.3613 38.7938 92.0813 37.9163L102.019 28.125H112.5C115.601 28.125 118.125 25.6012 118.125 22.5V7.5C118.125 4.39875 115.601 1.875 112.5 1.875ZM114.375 22.5C114.375 23.5331 113.535 24.375 112.5 24.375H100.481L89.325 35.3813C88.9556 35.8238 88.125 35.52 88.125 34.9463V24.375H82.5C81.465 24.375 80.625 23.5331 80.625 22.5V7.5C80.625 6.46688 81.465 5.625 82.5 5.625H112.5C113.535 5.625 114.375 6.46688 114.375 7.5V22.5Z" fill="#043A52"/>
<path d="M18.75 35.625H36.96L46.77 41.7825C47.6025 42.6394 48.7406 43.125 49.9463 43.125C52.3875 43.125 54.375 41.1375 54.375 38.6963V35.625H56.25C59.3512 35.625 61.875 33.1012 61.875 30V15C61.875 11.8987 59.3512 9.375 56.25 9.375H18.75C15.6487 9.375 13.125 11.8987 13.125 15V30C13.125 33.1012 15.6487 35.625 18.75 35.625ZM16.875 15C16.875 13.9669 17.715 13.125 18.75 13.125H56.25C57.285 13.125 58.125 13.9669 58.125 15V30C58.125 31.0331 57.285 31.875 56.25 31.875H50.625V38.6963C50.625 39.27 49.7925 39.5756 49.425 39.1294L38.04 31.875H18.75C17.715 31.875 16.875 31.0331 16.875 30V15Z" fill="#043A52"/>
<path d="M20.625 16.875H54.375V20.625H20.625V16.875Z" fill="#043A52"/>
<path d="M20.625 24.375H54.375V28.125H20.625V24.375Z" fill="#043A52"/>
</svg>

<svg width="120" height="120" fill="none" xmlns="http://www.w3.org/2000/svg"><path d="M71.25 63.75h1.022c.495-1.155.853-1.875.853-1.875h10.421a3.748 3.748 0 013.557 2.565l1.022 3.06h.99a4.636 4.636 0 012.072 8.78L90 76.876l3.75 7.5v2.096l3.161-1.579c6.147-3.075 9.964-9.253 9.964-16.124V64.9c0-9.94-8.087-18.026-18.026-18.026-3.267 0-6.473.889-9.274 2.569l-2.325 1.395a11.672 11.672 0 01-6 1.661 5.632 5.632 0 00-5.625 5.625 5.632 5.632 0 005.625 5.625zM37.5 43.125H30c-8.852 0-18.75 7.102-18.75 16.609 0 2.377.407 4.715 1.207 6.95l.445 1.243h.435c.643-2.4 2.81-4.177 5.413-4.177h1.875s7.5-1.875 13.125-7.5c5.625 5.625 13.125 7.5 13.125 7.5h1.875c2.602 0 4.77 1.778 5.413 4.177h.435l.444-1.243a20.554 20.554 0 001.208-6.95c0-9.507-9.898-16.609-18.75-16.609zM20.625 18.75h33.75v7.5h-33.75v-7.5z" fill="#00BBD3"/><path d="M107.156 90.334l-11.531-1.922V83.93l-3.118-6.238a6.472 6.472 0 003.118-5.557 6.517 6.517 0 00-6.144-6.499l-.597-1.79A5.62 5.62 0 0083.548 60H71.966l-.517 1.037C71.287 61.359 67.5 69.002 67.5 75v1.159l3.75 1.875v1.432A6.75 6.75 0 0075 85.534a6.82 6.82 0 003.034.716h2.591v2.162l-11.531 1.92a13.093 13.093 0 00-7.862 4.45 13.175 13.175 0 00-5.78-2.997L41.25 88.507v-2.413a15.036 15.036 0 007.007-9.221h.493c4.136 0 7.5-3.364 7.5-7.5s-3.364-7.5-7.5-7.5h-1.622c-1.15-.326-7.355-2.254-12.052-6.95l-1.326-1.324-1.326 1.325c-4.697 4.697-10.903 6.625-12.052 6.95H18.75c-4.136 0-7.5 3.365-7.5 7.5 0 4.137 3.364 7.5 7.5 7.5h.493a15.04 15.04 0 007.007 9.222v2.413l-14.201 3.278a13.06 13.06 0 00-10.174 12.787v13.551h116.25v-14.844a13.083 13.083 0 00-10.969-12.947zm-12.59 1.704l.774.13-1.099 8.795-3.64-3.637 3.965-5.288zM78.034 82.5a3.05 3.05 0 01-1.358-.32A3.016 3.016 0 0175 79.465v-3.75l-3.698-1.849c.329-3.744 2.136-8.15 3.015-10.117h9.23c.807 0 1.524.514 1.777 1.282l1.45 4.343h2.341a2.762 2.762 0 011.236 5.23l-2.867 1.43 4.391 8.782v4.559l-3.75 4.998-3.75-4.998V86.25h3.75V82.5H78.034zm3.65 9.538l3.964 5.288-3.64 3.637-1.098-8.796.774-.129zm-39.845.456l-1.742 8.703-3.872-3.871 3.917-5.222 1.697.39zM52.5 69.374a3.754 3.754 0 01-3.75 3.75l-.002-7.5h.002a3.754 3.754 0 013.75 3.75zm-37.5 0a3.754 3.754 0 013.75-3.75v7.5a3.754 3.754 0 01-3.75-3.75zm7.5 3.75v-7.981c2.316-.772 7.052-2.666 11.25-6.33 4.198 3.664 8.934 5.558 11.25 6.33v7.982c0 6.204-5.046 11.25-11.25 11.25S22.5 79.329 22.5 73.125zm11.25 15c1.297 0 2.548-.181 3.75-.492v1.745l-3.75 5-3.75-5v-1.745c1.202.311 2.453.493 3.75.493zm-6.392 3.978l3.917 5.222-3.872 3.872-1.742-8.704 1.697-.39zm27.017 22.273v-11.25h-3.75v11.25h-33.75v-11.25h-3.75v11.25h-7.5v-9.801a9.33 9.33 0 017.266-9.135l9.114-2.103 3.094 15.466 8.651-8.651 8.651 8.651 3.094-15.467 9.113 2.104c1.758.407 3.346 1.343 4.597 2.63a13.153 13.153 0 00-1.08 5.212v11.094h-3.75zm60 0h-7.5v-11.25h-3.75v11.25h-30v-11.25h-3.75v11.25h-7.5v-11.094a9.349 9.349 0 017.834-9.25l7.5-1.249 2.032 16.255 8.884-8.886 8.884 8.886 2.032-16.255 7.5 1.25a9.348 9.348 0 017.834 9.249v11.094z" fill="#043A52"/><path d="M78.75 71.25a1.875 1.875 0 100-3.75 1.875 1.875 0 000 3.75zm-37.5 1.875H37.5a3.754 3.754 0 01-3.75 3.75 3.754 3.754 0 01-3.75-3.75h-3.75c0 4.136 3.364 7.5 7.5 7.5s7.5-3.364 7.5-7.5zm-1.875-3.75a1.875 1.875 0 100-3.75 1.875 1.875 0 000 3.75zm-11.25 0a1.875 1.875 0 100-3.75 1.875 1.875 0 000 3.75zm58.125 37.5H90v3.75h-3.75v-3.75zm13.125-93.75h3.75v3.75h-3.75v-3.75zm-15 0h3.75v3.75h-3.75v-3.75zm7.5 0h3.75v3.75h-3.75v-3.75zm15 0h3.75v3.75h-3.75v-3.75z" fill="#043A52"/><path d="M112.5 1.875h-30A5.632 5.632 0 0076.875 7.5v15a5.632 5.632 0 005.625 5.625h1.875v6.821a4.435 4.435 0 004.429 4.429c1.318 0 2.557-.581 3.277-1.459l9.938-9.791H112.5a5.632 5.632 0 005.625-5.625v-15a5.632 5.632 0 00-5.625-5.625zm1.875 20.625c0 1.033-.84 1.875-1.875 1.875h-12.019L89.325 35.381c-.37.443-1.2.139-1.2-.435V24.375H82.5a1.877 1.877 0 01-1.875-1.875v-15c0-1.033.84-1.875 1.875-1.875h30c1.035 0 1.875.842 1.875 1.875v15zM18.75 35.625h18.21l9.81 6.157a4.416 4.416 0 003.176 1.343 4.435 4.435 0 004.429-4.429v-3.071h1.875A5.632 5.632 0 0061.875 30V15a5.632 5.632 0 00-5.625-5.625h-37.5A5.632 5.632 0 0013.125 15v15a5.632 5.632 0 005.625 5.625zM16.875 15c0-1.033.84-1.875 1.875-1.875h37.5c1.035 0 1.875.842 1.875 1.875v15c0 1.033-.84 1.875-1.875 1.875h-5.625v6.821c0 .574-.833.88-1.2.433L38.04 31.875H18.75A1.877 1.877 0 0116.875 30V15z" fill="#043A52"/><path d="M20.625 16.875h33.75v3.75h-33.75v-3.75zm0 7.5h33.75v3.75h-33.75v-3.75z" fill="#043A52"/></svg>
